X:1
T:Där borta
T:Ludvig Norman (1831-1885)
T:Visa
T:©PA Aglert Edition may be freely distributed, duplicated, performed and recorded
T:©PA Aglert Edition may be freely distributed, duplicated, performed and recorded
T:©PA Aglert Edition may be freely distributed, duplicated, performed and recorded
T:©PA Aglert Edition may be freely distributed, duplicated, performed and recorded
T:©PA Aglert Edition may be freely distributed, duplicated, performed and recorded
C:Ludvig Norman (1831-1885)
Z:©PA Aglert
Z:Edition may be freely distributed, duplicated, performed and recorded
%%score [ 1 2 3 4 ]
L:1/8
Q:1/4=110
M:6/8
K:Emin
V:1 treble nm="S"
V:2 treble nm="A"
V:3 treble-8 nm="T"
V:4 bass nm="B"
V:1
"^Allegro con brio"!mf! B | B2 ^d f2 e | B2 c !courtesy!=d2 B | !>!G3 !>!A3 | !>!B3- B z B | %5
w: Ack!|var- je år när|Maj- sol ler från|him- len|ner, _ när|
 A2 A e2 f | (e2 d) A2 A | A2 A d2 G | G3- G z!f! G | !>!e3 e2 e | (d2 g) B2 c | d3- dec | %12
w: fåg- la- sån- ger|skal- * la kring|grön- klädd dal och|höjd, _ hur|el- das vi|al- * la av|jub- * lan- de|
 B2 z z2!f! G | !>!g3 B2 c |!<(! (d2 ^d)!<)! !>!f2 e | A3 A2 B | G2 z z2!p! B | B2 ^d f2 e | %18
w: fröjd! Hur|el- das vi|al- * la av|jub- lan- de|fröjd! Men|när som som- marns|
 B2 c !courtesy!=d2 B | G3 A3 | B3- B2!mf! B | A2!<(! A A2 e | e3!<)! A z A |!<(! ^A2 A A2!<)! f | %24
w: prakt är all, för|höst- dag|kall, _ med|und- ran vi be-|kla- ga att|gläd- jen så oss|
 (!>!f3 ^A2)!f! A | B2 ^d f2 e | (B2 c) !courtesy!=d2 B | G2 G A2 A | B2 z z2!p! F | G2 F E2 ^A | %30
w: brytt; _ med|und- ran vi be-|kla- * ga, att|gläd- jen så oss|brytt, att|gläd- jen så oss|
 B2 z z2 z |!f! !>!f3 ^dBd | e3 B2 c |!<(! F3 F2 F!<)! | B2 z z2 z | e3 fe^d |!>(! e3 B2!>)! c | %37
w: brytt!|Ej mer skall sig|da- ga den|vår som har|flytt!|Ej mer skall sig|da- ga den|
!>(! B3 F2!>)! G |!p! E6- |"^sempre dim.""^un poco rit." E6- | E3- E2 E | E6- | E3- E2 z |] %43
w: vår som har|flytt,|_|* * som|flytt!|_ _|
V:2
!mf! B | B2 A A2 G | G2 G G2 G | !>!E3 !>!F3 | !>!G3- G z G | G2 G G2 A | G3 F2 F | =F2 F F2 F | %8
w: Ack!|var- je år när|Maj- sol ler från|him- len|ner, _ när|fåg- la- sån- ger|skal- la kring|grön- klädd dal och|
 E3- E z!f! E | !>!G3 G2 A | B3 G2 G | G3 F2 F | G2 G BA!f!G | G6- | G3 G2 G | G3 F2 F | %16
w: höjd, _ hur|el- das vi|al- la av|jub- lan- de|fröjd! Hur el- das vi|al-|* la av|jub- lan- de|
 D2 z z2!p! G | B2 A A2 G | G2 A B2 G | E3 F3 | G3- G2!mf! G | G2 G G2 G | F3 F z F | %23
w: fröjd! Men|när som som- marns|prakt är all, för|höst- dag|kall, _ med|und- ran vi be-|kla- ga att|
!<(! F2 F F2!<)! F | F3- F2!f! F | F2 B B2 B | G3 G2 G | E2 E F2 F | F2 z z2!p! F | G2 F E2 ^A | %30
w: gläd- jen så oss|brytt; _ med|und- ran vi be-|kla- ga, att|gläd- jen så oss|brytt, att|gläd- jen så oss|
 B2 z z2 z |!f! ^D3 F=DF | (E2 F) G2 E |!<(! E3 ^D2 D!<)! | E2 z !>!E3 | E3 E2 E | %36
w: brytt!|Ej mer skall sig|da- * ga den|vår som har|flytt! Ej|mer skall sig|
!>(! (E2 A) G2!>)! F |!>(! G3 ^D2!>)! D | E2 z z2 z |"^sempre dim." F3 AGF | B3 E2 F | G3 E2 F | %42
w: da- * ga den|vår som har|flytt,|Ej mer skall sig|da- ga den|vår som har|
 G3- G2 z |] %43
w: flytt! _|
V:3
!mf! B | B2 B B2 B | G2 A B2 d | !>!c3 !>!c3 | !>!B3- B z d | ^c2 B A3- | A2 A d2 A | z2 B c2 d | %8
w: Ack!|var- je år när|Maj- sol ler från|him- len|ner, _ när|fåg- la- sån-|* ger skal- la|kring grön- klädd|
 G2 c e2!f! G | !>!c3 c2 c | B3 d2 c | B3 c2 A | B2 z z2!f! B | B3 G2 A | B3 _B2 B | %15
w: dal och höjd, hur|el- das vi|al- la av|jub- lan- de|fröjd! Hur|el- das vi|al- la av|
 (A2 !courtesy!=B) c2 d | B2!mf! B BBB |!<(! B6-!<)! |!>(! B3- B2 d!>)! | G2 c e2 d | %20
w: jub- * lan- de|fröjd! av jub- lan- de|fröjd!|_ _ Men|när som som- marns|
 B2 c d2!mf! ^d | e3 (e2 !courtesy!=d) | c2 d e2 e |!<(! e3- e2!<)! d | (^c2 d) e2!f! c | %25
w: prakt är all, för|höst- dag _|kall, med und- ran|vi _ be-|kla- * ga med|
 B2 B B2 B | (B2 A) B2 d | c2 c e2 e | ^d2 z z2!p! F | G2 F E2 ^A | B2 z z2 z |!f! B3 BBA | %32
w: und- ran vi be-|kla- * ga, att|gläd- jen så oss|brytt, att|gläd- jen så oss|brytt!|Ej mer skall sig|
 (G2 A) B2 A |!<(! A3 (cB)B!<)! | B3 (A2 B) | ^c3 (=cB)A |!>(! B3 B2!>)! e |!>(! e3 A2!>)! B | %38
w: da- * ga den|vår som _ har|flytt! Ej _|mer skall _ sig|da- ga den|vår som har|
 G2 z z2 z |"^sempre dim." A3 cBA | G3 c2 A | B3 c2 A | B3- B2 z |] %43
w: flytt,|Ej mer skall sig|da- ga den|vår som har|flytt! _|
V:4
!mf! B, | B,2 B, E,2 E, | E,2 E, D,2 G,, | !>!C,3 !>!A,,3 | !>!G,,3- G,, z G, | E,2 D, ^C,3- | %6
w: Ack!|var- je år när|Maj- sol ler från|him- len|ner, _ när|fåg- la- sån-|
 C,2 D, D,2 D, | z2 D, C,2 B,, | C,2 G,, C,2!f! G, | !>!C,3 E,2 F, | G,3 G,2 E, | D,3 D,2 D, | %12
w: * ger skal- la|kring grön- klädd|dal och höjd, hur|el- das vi|al- la av|jub- lan- de|
 G,2 z z2!f! G, | G,3 G,2 E, |!<(! D,3!<)! !>!^C,2 C, | D,3 D,2 D, | G,2 z z2 z | z2 z!p! E,2 z | %18
w: fröjd! Hur|el- das vi|al- la av|jub- lan- de|fröjd!|Men|
 .!courtesy!=D,2 z .G,,2 z | C,3- C,2 A,, | G,,2 A,, B,,2!mf! B,, | C,3 (C,2 B,,) | %22
w: när som|som- * marns|prakt är all, för|höst- dag _|
 A,,2 B,, C,2 C, |!<(! ^C,3- C,2!<)! B,, | (^A,,2 B,,) ^C,2!f! E, | ^D,2 F, A,2 G, | %26
w: kall, med und- ran|vi _ be-|kla- * ga med|und- ran vi be-|
 E,3 !courtesy!=D,2 G,, | C,2 C, C2 C | B,2 z z2!p! F, | G,2 F, E,2 ^A, | B,2 z z2 z | %31
w: kla- ga, att|gläd- jen så oss|brytt, att|gläd- jen så oss|brytt!|
!f! B,,3 B,,B,,B,, | E,3 E,2 A,, |!<(! B,,3 B,,2 A,!<)! | ^G,3 (F,2 G,) | A,3 (A,!courtesy!=G,)F, | %36
w: Ej mer skall sig|da- ga den|vår som har|flytt! Ej _|mer skall _ sig|
!>(! (G,2 F,) E,2!>)! A,, |!>(! B,,3 B,,2 B,,!>)! |!p! E,6- |"^sempre dim." E,6- | E,3- E,2 E, | %41
w: da- * ga den|vår som har|flytt,|_|* * som|
 E,6- | E,3 E,2 z |] %43
w: flytt!|_ _|

